X:1
T:The Buds Are Bursting on the Trees
T:The Buds Are Bursting on the Trees
T:R. H. Clouston, Jr.
T:Mabel G. Osgood, 1885
T:Public Domain Courtesy of the Cyber Hymnal™
C:R. H. Clouston, Jr.
Z:Public Domain
Z:Courtesy of the Cyber Hymnal™
%%score ( 1 2 ) ( 3 4 )
L:1/8
Q:1/4=105
M:4/4
K:F
V:1 treble 
V:2 treble 
V:3 bass 
V:4 bass 
V:1
 [DEB]2 | [CEA]2 [B,EG]2 [EF]2 [DF]2 | [DA]2 [DG]2 [CE]3 [CEG] | [CFc]2 (cd) [Gc=e]2 [F=Bd]2 | %4
w: 1.~The|buds are burst- ing|on the trees, The|earth a- * wakes a-|
w: 2.~Come,|let us all sweet|bloss- oms bring The|ris- en * Lord to|
w: 3.~No|long- er death and|hope- less gloom Shall|grieve our * souls dis-|
 [Ec]6 (Bc) | [Bd]2 [Bd]2 (GA) (B=B) | c2 c2 [CFA]2 [Fc]2 | c2 (GA) B2 c2 | [FA]6 || %9
w: gain; The *|birds are sing- * ing *|out their glees, For|Christ a- * gain doth|reign.|
w: greet, And *|make our hearts * an *|of- fer- ing, And|lay them * at His|feet.|
w: tressed; For *|Christ has trod- * den, *|through the tomb, A|path- way * for the|blest.|
"^Refrain" (AG) | [DF]2 (cB) [FA]2 [Fd]2 | [Ge]4 [Fd]4 | [Ec]6 [EGc]2 | !>![Fc]4 !>![Fd]4 | %14
w: |||||
w: A- *|wake, and * al- le-|lu- ias|sing! For|death is|
w: |||||
 !>![Ec]6 [FA]2 | !>![Fc]4 c4 | [CF]6"^Inst." [CFc]2 | c4 [CG]2 c4 [CA]2 | c4 [CB]2 c4 [CG]2 | %19
w: |||||
w: slain and|Christ is|king. A-|wake, wake, and the|* us swell, voice|
w: |||||
!<(! [CFc]6!<)! [DFB]2 | !>![CFA]2 (GF) !>![CG]2 (FE) | !>![CG]3 [CA] !fermata![CF]2 |] %22
w: |||
w: * and|harp and * Eas- ter *|bell. * *|
w: |||
V:2
 x2 | x8 | x8 | x2 [C_E]2 x4 | x8 | E4 E2 E2 | F4 x4 | E4 E4 | x6 || ^C2 | x2 E2 x4 | x8 | x8 | %13
 x8 | x8 | x4 (3(!>!E2 F2 G2) | x8 | [C-E]2 [C-F]2 x8 | [C-G]2 [C-A]2 x8 | x8 | x2 C2 x C2 x | %21
 x6 |] %22
V:3
 C,2 | C,2 ^C,2 [D,A,]2 [D,A,]2 | [B,,B,]2 [B,,B,]2 [C,G,]3 B,, | %3
 [A,,A,]2 [_A,,_A,]2 [G,,G,]2 [G,,G,]2 | [C,G,]6 z2 | G,2 C,2 B,2 C,2 | A,2 C,2 F,2 [C,A,]2 | %7
 G,2 [C,B,]2 G,2 [C,G,]2 | F,6 || [A,,E,]2 | [D,A,]2 [C,G,]2 [F,C]2 [D,A,]2 | [G,C]4 [G,=B,]4 | %12
 [C,G,]6 B,2 | A,4 [D,A,]4 | A,6 [F,C]2 | [C,A,]4 (3(G,2 A,2 B,2) | [F,A,]6 A,2 | %17
 G,2 [C,B,]2 [F,A,]2 [C,F,]2 x4 | [C,E,]2 [C,G,]2 [C,F,]2 [B,,E,]2 x4 | [A,,F,]6 G,,2 | %20
 C,2 (B,A,) [C,B,]2 (A,G,) | [C,B,]3 [F,A,] !fermata![F,A,]2 |] %22
V:4
 x2 | x8 | x8 | x8 | x8 | x8 | x8 | x8 | F,6 || x2 | x8 | x8 | x8 | A,4 x4 | x8 | x4 C,4 | x8 | %17
 x12 | x12 | x8 | x2 C,2 x C,2 x | x6 |] %22

